assets/img/braze_icons/umbrella-03.svg

<svg fill="none" height="24" viewBox="0 0 24 24" width="24" xmlns="http://www.w3.org/2000/svg"><path clip-rule="evenodd" d="m3.46991 5.05221c3.3454-4.116634 9.27369-5.316021 14.01679-2.58622l.0132.0076.0132.00765c4.7357 2.74271 6.6612 8.47646 4.7688 13.43206-.1375.3601-.3045.8734-.7571 1.2448-.3434.2817-.834.4559-1.2781.4538-.3204-.0015-.589-.0893-.8174-.1926-.1978-.0894-.4137-.2141-.6245-.3359l-6.4387-3.7174-4.40753 7.634h14.04143c.5523 0 1 .4477 1 1s-.4477 1-1 1h-20c-.55228 0-1-.4477-1-1s.44772-1 1-1h3.64917l4.98483-8.634-6.43888-3.71748c-.21081-.12166-.42678-.24629-.60316-.37289-.20361-.14615-.41398-.33489-.57546-.61157-.22388-.38357-.31831-.89556-.24601-1.33376.09536-.57793.45632-.97894.69942-1.27809zm1.55211 1.26133c2.01732-2.48239 5.18458-3.66713 8.26418-3.22357-.2746.17667-.548.37317-.8186.58609-1.4594 1.14838-2.9662 2.87777-4.28138 4.96731l-3.42776-1.99232c.03881-.05744.12559-.16773.26356-.33751zm13.95268 1.11942c-.2648 1.83807-1.0091 4.00764-2.1611 6.19144l3.4394 1.9724c.0303-.0623.0825-.1926.1605-.397 1.1412-2.9883.5835-6.32365-1.3405-8.76892-.0157.32616-.0492.66126-.0983 1.00208z" fill="#801ed7" fill-rule="evenodd"/></svg>

<svg width="24" height="24" viewBox="0 0 24 24" fill="none" xmlns="http://www.w3.org/2000/svg">
<path fill-rule="evenodd" clip-rule="evenodd" d="M3.46991 5.05221C6.81531 0.935576 12.7436 -0.263811 17.4867 2.46599L17.4999 2.47359L17.5131 2.48124C22.2488 5.22395 24.1743 10.9577 22.2819 15.9133C22.1444 16.2734 21.9774 16.7867 21.5248 17.1581C21.1814 17.4398 20.6908 17.614 20.2467 17.6119C19.9263 17.6104 19.6577 17.5226 19.4293 17.4193C19.2315 17.3299 19.0156 17.2052 18.8048 17.0834L12.3661 13.366L7.95857 21H22C22.5523 21 23 21.4477 23 22C23 22.5523 22.5523 23 22 23H2C1.44772 23 1 22.5523 1 22C1 21.4477 1.44772 21 2 21H5.64917L10.634 12.366L4.19512 8.64852C3.98431 8.52686 3.76834 8.40223 3.59196 8.27563C3.38835 8.12948 3.17798 7.94074 3.0165 7.66406C2.79262 7.28049 2.69819 6.7685 2.77049 6.3303C2.86585 5.75237 3.22681 5.35136 3.46991 5.05221ZM5.02202 6.31354C7.03934 3.83115 10.2066 2.64641 13.2862 3.08997C13.0116 3.26664 12.7382 3.46314 12.4676 3.67606C11.0082 4.82444 9.5014 6.55383 8.18622 8.64337L4.75846 6.65105C4.79727 6.59361 4.88405 6.48332 5.02202 6.31354ZM18.9747 7.43296C18.7099 9.27103 17.9656 11.4406 16.8136 13.6244L20.253 15.5968C20.2833 15.5345 20.3355 15.4042 20.4135 15.1998C21.5547 12.2115 20.997 8.87615 19.073 6.43088C19.0573 6.75704 19.0238 7.09214 18.9747 7.43296Z" fill="#801ED7"/>
</svg>
